Sources/FrostedUI/Resources/Icons.xcassets/profile12.imageset/profile-12.svg

<svg width="12" height="12" viewBox="0 0 12 12" fill="none" xmlns="http://www.w3.org/2000/svg" data-fui-icon="true">
  <path
    d="M6.00122 6.5C8.02694 6.50027 9.58341 7.71851 10.2131 9.4209C10.4173 9.97299 10.276 10.5206 9.95337 10.9053C9.64103 11.2775 9.16285 11.4999 8.65259 11.5H3.34888C2.83862 11.4999 2.36046 11.2775 2.0481 10.9053C1.72536 10.5206 1.58411 9.97306 1.78833 9.4209C2.41814 7.71834 3.97523 6.5 6.00122 6.5ZM6.00122 8C4.63701 8 3.61978 8.79466 3.19556 9.93945L3.19751 9.94043C3.2175 9.96416 3.27038 9.9999 3.34888 10H8.65259C8.73116 9.99987 8.78406 9.96415 8.80396 9.94043L8.80493 9.93945C8.38072 8.79499 7.36502 8.00026 6.00122 8ZM6.00024 0.5C7.45001 0.500005 8.62524 1.67526 8.62524 3.125C8.62524 4.57474 7.45001 5.74999 6.00024 5.75C4.55058 5.74991 3.37524 4.57469 3.37524 3.125C3.37524 1.67531 4.55058 0.500089 6.00024 0.5ZM6.00024 2C5.37901 2.00009 4.87524 2.50373 4.87524 3.125C4.87524 3.74627 5.37901 4.24991 6.00024 4.25C6.62157 4.24999 7.12524 3.74632 7.12524 3.125C7.12524 2.50368 6.62157 2.00001 6.00024 2Z"
    fill="currentColor"
  />
</svg>

<svg xmlns="http://www.w3.org/2000/svg" width="12" height="12" fill="none" data-fui-icon="true" viewBox="0 0 12 12"><path fill="currentColor" d="M6.001 6.5c2.026 0 3.582 1.219 4.212 2.92.204.553.063 1.1-.26 1.485a1.7 1.7 0 0 1-1.3.595H3.349a1.7 1.7 0 0 1-1.3-.595 1.48 1.48 0 0 1-.26-1.484C2.418 7.718 3.974 6.5 6 6.5m0 1.5c-1.364 0-2.381.795-2.805 1.94h.002c.02.024.072.06.15.06h5.305a.2.2 0 0 0 .151-.06C8.382 8.794 7.366 8 6.002 8m0-7.5a2.625 2.625 0 1 1 0 5.25A2.625 2.625 0 0 1 6 .5M6 2a1.125 1.125 0 1 0 0 2.25A1.125 1.125 0 0 0 6 2"/></svg>
